X: 1885
T:Polly Wolly Doodle
S:Comando list, 7/98, Peter Freitag
O:American
M:4/4
Q:126
K:D
|DE| F2 F2 D2 DE| F2 F2 D2 DE| F2 F2 G2 F2| E4 CD E2|\
E2 C2 CD E2| E2 C2 EE A2| A2 G2 E2 D2|
DE F4 DE| F4 DE F2| F2 G2 F2 E2| CD E2 E2 C2| CD E2 E2 C2| EE A2 A2 G2| E2 D4|
